X: 16283
T: Grian Ri, The
R: reel
M: 4/4
K: Dmajor
FA (3AAA dAFA|(3AAA dA FAAF|GB (3BBB dBGB|
(3BBB dB GBBG|FA (3AAA dAFA|(3AAA dA FAAF|
GB (3BBB Ad (3ddd|1 cdec dBAG:|2 cdec defd||
cAcd e3g|faaf defd|cA (3AAA GAFA|EA (3AAA edcB|
cAcd eAeg|faaf defa|g2fg agfe|1 d2ce defd:|2 d2ce dBAG||

